tools/download-figma-icons/icons/action/wallbe-pro.svg

<svg width="24" height="24" viewBox="0 0 24 24" fill="none" xmlns="http://www.w3.org/2000/svg">
<path fill-rule="evenodd" clip-rule="evenodd" d="M1.99997 5.88893C1.99997 3.74495 3.74395 1.99997 5.88893 1.99997H18.1118C20.2557 1.99997 21.9997 3.74495 21.9997 5.88893V18.1108C21.9997 20.2547 20.2557 21.9997 18.1118 21.9997H5.88893C3.74395 21.9997 1.99997 20.2547 1.99997 18.1108V5.88893ZM5.88893 23.9997H18.1118C21.3587 23.9997 23.9997 21.3577 23.9997 18.1108V5.88893C23.9997 2.64197 21.3587 0 18.1118 0H5.88893C2.64197 0 0 2.64197 0 5.88893V18.1108C0 21.3577 2.64197 23.9997 5.88893 23.9997ZM16.0001 13.9998C16.0001 14.5498 16.4501 14.9998 17.0001 14.9998C17.5501 14.9998 18.0001 14.5498 18.0001 13.9998C18.0001 13.4498 17.5501 12.9998 17.0001 12.9998C16.4501 12.9998 16.0001 13.4498 16.0001 13.9998ZM10.0002 10.9999C10.0002 12.0998 10.9002 12.9998 12.0001 12.9998C13.1001 12.9998 14.0001 12.0998 14.0001 10.9999C14.0001 9.89987 13.1001 8.99989 12.0001 8.99989C10.9002 8.99989 10.0002 9.89987 10.0002 10.9999ZM15.7309 9.49948C16.1137 10.2518 16.3805 10.7764 17.7501 11.0899C19.0401 11.4299 20 12.5998 20 13.9998C20 15.6598 18.6601 16.9998 17.0001 16.9998C16.2201 16.9998 15.5301 16.6998 14.9901 16.2198C14.8806 16.1284 14.7838 16.0297 14.6854 15.9294C14.2452 15.4807 13.7735 14.9998 12.0001 14.9998C10.9802 14.9998 10.0702 14.6098 9.35918 13.9798C8.32019 13.0998 6.98021 12.9898 6.35022 12.9898C6.13022 12.9898 6.00022 12.9998 6.00022 12.9998C4.90024 12.9998 4.00025 12.0998 4.00025 10.9999C4.00025 9.89987 4.90024 8.99989 6.00022 8.99989C6.00022 8.99989 6.10922 9.00989 6.31122 9.00989C6.91021 9.00989 8.28019 8.89989 9.35018 7.9999C10.0612 7.36991 10.9802 6.99991 12.0001 6.99991C12.7301 6.99991 13.4101 7.20991 14.0001 7.5599V7.5399C14.0001 7.5399 14.3801 7.7299 14.8111 8.1599C14.8158 8.16513 14.8236 8.17037 14.8313 8.17561C14.8383 8.18037 14.8453 8.18513 14.8501 8.1899C14.9901 8.33989 15.1301 8.50989 15.2701 8.70989C15.3024 8.74933 15.3211 8.78255 15.3418 8.81936C15.3473 8.82922 15.353 8.83933 15.3591 8.84989C15.3741 8.8733 15.3906 8.89453 15.407 8.91561C15.4257 8.93955 15.4442 8.9633 15.4601 8.98989C15.5633 9.1701 15.6497 9.33991 15.7309 9.49948Z" fill="black"/>
</svg>

<svg width="24" height="24" viewBox="0 0 24 24" fill="none" xmlns="http://www.w3.org/2000/svg"><path fill-rule="evenodd" clip-rule="evenodd" d="M2 5.889A3.893 3.893 0 0 1 5.889 2h12.223A3.893 3.893 0 0 1 22 5.889V18.11A3.893 3.893 0 0 1 18.112 22H5.889A3.893 3.893 0 0 1 2 18.11V5.89Zm3.889 18.11h12.223A5.895 5.895 0 0 0 24 18.112V5.889A5.895 5.895 0 0 0 18.112 0H5.889A5.896 5.896 0 0 0 0 5.889V18.11A5.896 5.896 0 0 0 5.889 24ZM16 14c0 .55.45 1 1 1s1-.45 1-1-.45-1-1-1-1 .45-1 1Zm-6-3c0 1.1.9 2 2 2s2-.9 2-2-.9-2-2-2-2 .9-2 2Zm5.73-1.5c.384.753.65 1.277 2.02 1.59C19.04 11.43 20 12.6 20 14c0 1.66-1.34 3-3 3a3 3 0 0 1-2.01-.78c-.11-.09-.206-.19-.305-.29-.44-.448-.912-.93-2.685-.93-1.02 0-1.93-.39-2.64-1.02-1.04-.88-2.38-.99-3.01-.99-.22 0-.35.01-.35.01-1.1 0-2-.9-2-2s.9-2 2-2c0 0 .11.01.311.01.6 0 1.97-.11 3.04-1.01.71-.63 1.63-1 2.65-1 .73 0 1.41.21 2 .56v-.02s.38.19.81.62c.005.006.013.011.02.017l.02.014a4.736 4.736 0 0 1 .49.63l.018.03a.88.88 0 0 0 .048.066.728.728 0 0 1 .053.074c.103.18.19.35.27.51Z" fill="currentColor"/></svg>
